X: 11112
Q: "Moderate."
M: 2/4
L: 1/8
K: Eb
eBGc | BGEG | BBeg | gf zB |\
eBGc | BGEG | Bgfd | fe zg |\
bafd | geBG | BAFD | E2ze |\
edcB | cAGF | agfe | df zB |\
e2za | gfed | e2za | gfed |\
e2z2 | z2g2 | B2z2 | z2zB |\
ge2 |]


